X:1
T:True-Hearted, 11.10.11.10 D
T:True-Hearted, 11.10.11.10 D
T:Josiah Booth, 1897
T:Public Domain Courtesy of the Cyber Hymnal™
C:Josiah Booth, 1897
Z:Public Domain
Z:Courtesy of the Cyber Hymnal™
%%score ( 1 2 ) ( 3 4 )
L:1/8
Q:1/2=100
M:4/2
K:Bb
V:1 treble 
V:2 treble 
V:3 bass 
V:4 bass 
V:1
 [DF]4 [DF]2 [EG]2 [DF]4 [B,D]2 [CE]2 | [DF]4 [FB]2 [FA]2 [EG]4 [DF]4 | %2
 [Fd]4 [Fc]2 [=EB]2 [FA]4 [FA]2 [FB]2 | [FG]4 [=EG]2 [EA]2 F8 | [DF]4 [DF]2 [EG]2 [DF]4 D2 [DF]2 | %5
 [GB]4 [GB]2 [Gc]2 [=Fd]4 [FA]4 | [DB]4 [DA]2 [EG]2 F4 [Fd]2 [Ee]2 | [Gc]4 [Ec]2 [Fd]2 [DB]8 | %8
!>(! [Ge]4 [GB]3!>)! [Gc]!>(! [GB]4 [EG]2!>)! [FG]2 | [EG]4 G2 [GA]2 [GB]4 G4 | %10
 [Gd]4 [Gc]2 [GB]2 [FA]4 [Fc]2 F2 | F4 [=EG]2 [EA]2 F8 | [DF]4 [DF]2 [EG]2 [DF]4 D2 [DF]2 | %13
 [DB]4 [Gc]2 [Gd]2 [Ge]4 [Fc]4 | [Ff]4 [Ae]2 [Bd]2 [Gd]4 G2 G2 | [Ge]4 [Ad]2 [Ac]2 B8 |] %16
V:2
 x16 | x16 | x16 | x8 F8 | x12 D2 x2 | x16 | x8 F4 x4 | x16 | x16 | x4 G2 x4 G4 x2 | x14 F2 | %11
 F4 F8 x4 | x12 D2 x2 | x16 | x12 G2 G2 | x8 B8 |] %16
V:3
 [B,,B,]4 [B,,B,]2 [B,,B,]2 [B,,B,]4 [B,,F,]2 [B,,F,]2 | %1
 [B,,B,]4 [D,B,]2 [D,B,]2 [E,B,]4 [B,,B,]4 | B,4 [A,C]2 [G,C]2 [F,C]4 [F,C]2 [D,D]2 | %3
 [B,,D]4 [C,C]2 [C,C]2 [F,A,]8 | [B,,B,]4 [B,,B,]2 [B,,B,]2 [B,,B,]4 B,2 [A,D]2 | %5
 [G,D]4 [G,D]2 [E,C]2 [D,A,]4 [D,D]4 | [G,B,]4 [F,B,]2 [E,B,]2 [D,B,]4 B,2 [G,B,]2 | %7
 [E,B,]4 [F,A,]2 [F,A,]2 B,8 | [E,B,]4 [E,E]3 [E,E] [E,E]4 [E,B,]2 [D,=B,]2 | %9
 [C,C]4 [CE]2 [CE]2 [G,D]4 [G,B,]4 | [G,B,]4 [=E,C]2 [E,C]2 [F,C]4 [A,,C]2 [A,,C]2 | %11
 [D,A,]4 [C,B,]2 [C,C]2 [F,A,]8 | [B,,B,]4 [B,,B,]2 [B,,B,]2 [B,,B,]4 B,2 [A,D]2 | %13
 [G,D]4 [E,C]2 [D,=B,]2 [C,C]4 [F,A,]4 | D4 [CF]2 [B,F]2 [E,E]4 [E,E]2 [E,E]2 | %15
 [C,G]4 [F,F]2 [F,E]2 [B,D]8 |] %16
V:4
 x16 | x16 | B,4 x12 | x16 | x12 B,2 x2 | x16 | x12 B,2 x2 | x8 B,8 | x16 | x16 | x16 | x16 | %12
 x12 B,2 x2 | x16 | D4 x12 | x16 |] %16

